X: 65
T: Motet cycle Quam pulchra es &mdash; 6. O Maria clausus hortus
C: Gaspar van Weerbeke
%%abc-version 2.0
%%abcx-abcm2ps-target-version 5.9.1 (29 Sep 2008)
%%abc-creator hum2abc beta
%%abcx-conversion-date 2022/03/06 13:05:56
%%abc-copyright Copyright 2021, Pavanello, Agnese
%%abc-edited-by Sapp, Craig Stuart
%%abc-edited-by Wissmann, Rolf
%%humdrum-veritas 2688422989
%%humdrum-veritas-data 2117006353
%%linebreak <none>
%%barnumbers 0
L: 1/4
M: C
N: Derived from Gas0302f-Quam_pulchra_es-O_Maria_clausus_hortus.krn
%%staves [1 2 3 4]
V: 1 clef=treble
V: 2 clef=treble-8
V: 3 clef=treble-8
V: 4 clef=bass
K: F
[V:1] A6A2 | 
[V:2] z8 | 
[V:3] d6d2 | 
[V:4] z8 | 
[V:1] B6A2 | 
[V:2] z8 | 
[V:3] d6c2 | 
[V:4] z8 | 
[V:1] A2G2G2^F2 | 
[V:2] z8 | 
[V:3] c2B2A4 | 
[V:4] z8 | 
[V:1] G8 | 
[V:2] z8 | 
[V:3] G8 | 
[V:4] z8 | 
[V:1] z8 | 
[V:2] a6g2 | 
[V:3] z8 | 
[V:4] D,6E,2 | 
[V:1] z8 | 
[V:2] f4e2e2 | 
[V:3] z8 | 
[V:4] D,4E,2G,2 | 
[V:1] z8 | 
[V:2] d2g4^f2 | 
[V:3] z8 | 
[V:4] F,2G,2A,4 | 
[V:1] z8 | 
[V:2] g4d3e | 
[V:3] z8 | 
[V:4] G,8 | 
[V:1] A8 | 
[V:2] f8 | 
[V:3] c8 | 
[V:4] F,8 | 
[V:1] G4F4 | 
[V:2] d4d4 | 
[V:3] B4A4 | 
[V:4] G,4D,4 | 
[V:1] G4B4 | 
[V:2] B2G2g4 | 
[V:3] G4d4 | 
[V:4] _E,2G,4G,2 | 
[V:1] A2A4G2 | 
[V:2] e2f2d4 | 
[V:3] c4B4 | 
[V:4] A,2F,2G,4 | 
[V:1] A8 | 
[V:2] d8 | 
[V:3] A8 | 
[V:4] D,8 | 
[V:1] d4d2d2 | 
[V:2] A4A2A2 | 
[V:3] f4f2f2 | 
[V:4] D,4D,2D,2 | 
[V:1] d6c2 | 
[V:2] A6c2 | 
[V:3] f6e2 | 
[V:4] D,6A,2 | 
[V:1] B2AG2<^F2E | 
[V:2] d4d4 | 
[V:3] d2cBA4 | 
[V:4] D,2G,2D,4 | 
[V:1] G4z2G2 | 
[V:2] B4z4 | 
[V:3] G4z4 | 
[V:4] z4z2G,2 | 
[V:1] A2A2B2B2 | 
[V:2] z8 | 
[V:3] z8 | 
[V:4] D,2D,2G,2G,2 | 
[V:1] A2A2G4 | 
[V:2] z4z2g2 | 
[V:3] z4z2G2 | 
[V:4] ^F,2F,2G,4 | 
[V:1] z8 | 
[V:2] f2e2d2g2 | 
[V:3] A2A2B2B2 | 
[V:4] z8 | 
[V:1] z8 | 
[V:2] ^f2^f2g4- | 
[V:3] A2A2G4 | 
[V:4] z8 | 
[V:1] B6B2 | 
[V:2] g2g4g2 | 
[V:3] d4d2d2 | 
[V:4] G,6G,2 | 
[V:1] B6A2 | 
[V:2] g6f2 | 
[V:3] d6c2 | 
[V:4] G,6A,2 | 
[V:1] B2A2B2G2 | 
[V:2] g2c2d4 | 
[V:3] d2c2B4 | 
[V:4] G,2A,2G,4 | 
[V:1] ^F8 | 
[V:2] d8 | 
[V:3] A8 | 
[V:4] D,8 | 
[V:1] z8 | 
[V:2] A4B2c2 | 
[V:3] f4f2e2 | 
[V:4] D,4D,2C,2 | 
[V:1] f4f2e2 | 
[V:2] A6A2 | 
[V:3] d6c2 | 
[V:4] D,6F,2 | 
[V:1] d6c2 | 
[V:2] B2>c2d2c2 | 
[V:3] B2G2B2c2 | 
[V:4] G,6C,2 | 
[V:1] B2AG2<^F2E | 
[V:2] g2e2d4 | 
[V:3] G2B2A4 | 
[V:4] _E,2G,2D,4 | 
[V:1] G4z2G2 | 
[V:2] B4z4 | 
[V:3] G4z4 | 
[V:4] z4z2G,2 | 
[V:1] A2A2B2B2 | 
[V:2] z8 | 
[V:3] z8 | 
[V:4] D,2D,2G,2G,2 | 
[V:1] A2A2G4 | 
[V:2] z4z2g2 | 
[V:3] z4z2G2 | 
[V:4] ^F,2F,2G,4 | 
[V:1] z8 | 
[V:2] f2e2d2g2 | 
[V:3] A2A2B2B2 | 
[V:4] z8 | 
[V:1] z8 | 
[V:2] ^f2^f2g4 | 
[V:3] A2A2G4 | 
[V:4] z8 | 
[V:1] F4F2F2 | 
[V:2] a4a2a2 | 
[V:3] d4d2d2 | 
[V:4] D,4D,2D,2 | 
[V:1] F6B2 | 
[V:2] a6g2 | 
[V:3] d6d2 | 
[V:4] D,6G,2 | 
[V:1] A4G4 | 
[V:2] f4e4 | 
[V:3] c4B4 | 
[V:4] A,2F,2G,4 | 
[V:1] A8 | 
[V:2] f8 | 
[V:3] A8 | 
[V:4] F,8 | 
[V:1] B4B2B2 | 
[V:2] B4B2B2 | 
[V:3] d4d2d2 | 
[V:4] G,4G,2G,2 | 
[V:1] B6A2 | 
[V:2] B6c2 | 
[V:3] d6c2 | 
[V:4] G,6A,2 | 
[V:1] G4^F4 | 
[V:2] d4d4 | 
[V:3] B4A4 | 
[V:4] B,2G,2D,4 | 
[V:1] G4z2G2 | 
[V:2] B4z4 | 
[V:3] G4z4 | 
[V:4] z4z2G,2 | 
[V:1] A2A2B2B2 | 
[V:2] z8 | 
[V:3] z8 | 
[V:4] D,2D,2G,2G,2 | 
[V:1] A2A2G4 | 
[V:2] z4z2g2 | 
[V:3] z4z2G2 | 
[V:4] ^F,2F,2G,4 | 
[V:1] z8 | 
[V:2] f2e2d2g2 | 
[V:3] A2A2B2B2 | 
[V:4] z8 | 
[V:1] z8 | 
[V:2] ^f2^f2g4 | 
[V:3] A2A2G4 | 
[V:4] z8 | 
[V:1] G4G2G2 | 
[V:2] d4d2d2 | 
[V:3] B4B2B2 | 
[V:4] G,4G,2G,2 | 
[V:1] D4G4 | 
[V:2] g4_e4 | 
[V:3] B4B4 | 
[V:4] G,4G,4 | 
[V:1] A2F2G2G2 | 
[V:2] d2d4c2 | 
[V:3] A2A4G2 | 
[V:4] F,2D,2_E,4 | 
[V:1] F4z4 | 
[V:2] d8 | 
[V:3] A8 | 
[V:4] D,8 | 
[V:1] A4A2A2- | 
[V:2] f4f2f2- | 
[V:3] A4A2A2- | 
[V:4] D,4D,2D,2- | 
[V:1] A2A2A2B2- | 
[V:2] f2f2f2g2- | 
[V:3] A2A2c2d2 | 
[V:4] D,2F,2A,2G,2- | 
[V:1] BAG4^F2 | 
[V:2] g2e2d4 | 
[V:3] B2c2A4 | 
[V:4] G,2C,2D,4 | 
[V:1] G2B2A2B2- | 
[V:2] Bcdef2d2 | 
[V:3] G4F2G2 | 
[V:4] z2D4B,2 | 
[V:1] BAG2^F3E | 
[V:2] _e4d4 | 
[V:3] B2c2A4 | 
[V:4] G,2C,2D,4 | 
[V:1] G8 |]  
[V:2] d8 |]  
[V:3] G8 |]  
[V:4] G,8 |]  


